!!!OTL: 522b. Jm Wald bei der Amsel.
!!!ARE: Europa, Mitteleuropa, Deutschland, Rheinpfalz
!!!SCT: E0522D
!!!TXL: @@DE
!!!YEM: Copyright 1995, estate of Helmut Schaffrath.
**kern	**text
*ICvox	*
*M4/4	*
*met(c)	*
*k[f#c#g#]	*
*A:	*
!LO:TX:a:t=Heiter.	!
!LO:TX:a:t=Aus der Rheinpfalʒ: Dr. Fr. Ʒinß, 36 deutſche Volkslieder. Lpʒ. 1882. Nr. 32.	!
{8e	Geſtern
8e	.
=1	=1
4.a	A-
8a	-bend
8a	in
8cc#	der
8ee	ſtil-
8cc#	-len
=2	=2
(8.cc#L	Ruh
16ddJ	.
4b)	.
4r}	.
{8b	hört
8cc#	ich
=3	=3
8.dd	in
16dd	dem
8dd	Walde
8dd	.
8cc#	ei-
8b	-ner
8.cc#	Am-
16b	-ſel
=4	=4
(8.bL	ʒu
16cc#J	.
4a)	.
4r}	.
{(8a	Als
8b/)	ich
=5	=5
8.cc#/L	nun
16aJ	.
8.cc#/L	ſo
16aJ	.
4cc#	ſaß,
8dd	mei-
8cc#	-ner
=6	=6
8.b/L	ganʒ
16g#J	.
8.b/L	ver-
16g#J	.
4b}	-gaß,
{8b	kam
8dd	mein
=7	=7
*M5/4	*
8cc#	Schatʒ
8a	und
8a	ſprach
8a	Jetʒt
8a	hab
16aL	ich
16bJ	.
8cc#}	dich
{8a	und
8.b/	küß-
16g#	-te
=8	=8
(8.bL	mich.
16cc#J	.
4a)	.
4r}	.
==	==
!!!AGN: Liebes - Lied
!! +++ Zeile 264 (+Auftakt 265) "gef�hlsm��ig" auf 4/4 getrimmt! ++++
!!!ONB: ESAC (Essen Associative Code) Database: ERK1
!!!AMT: simple quadruple
!!!AIN: vox
!!!EED: Helmut Schaffrath
!!!EEV: 1.0
!!!GTL: Liebeslieder [Neuere (aus dem 18. bis 19. Jahrh.) - Liebeslust]
!!!URL-scan: https://rosdok.uni-rostock.de/mcrviewer/recordIdentifier/rosdok_ppn745177662/iview2/phys_0348.iview2?x=-4.404412318551749&y=729.8955144223291&scale=0.6456904138606623&rotation=0&layout=singlePageLayout
!!!ENC: Anna Maria Matuszewska
!!!EEV: 2024/10/12
*-	*-
